src/icons/icons_set_04/021-info.svg

<svg height="50" viewBox="0 0 50 50" width="50" xmlns="http://www.w3.org/2000/svg"><path d="m45.8565647 25c0 11.5187625-9.3378022 20.8565647-20.8565647 20.8565647-11.5187626 0-20.85656467-9.3378022-20.85656467-20.8565647 0-11.5187626 9.33780207-20.85656467 20.85656467-20.85656467 5.5315049 0 10.8364537 2.19738176 14.7478183 6.10874637 3.9113646 3.9113646 6.1087464 9.2163134 6.1087464 14.7478183zm-16.985338 8.8228417c-.51627.1706705-1.0532287.2696444-1.596043.2941877-.4059469 0-.5709541-.0853144-.6220625-.1220879-.2584626-.1809254-.7301203-.5192412.0817735-2.1666922l1.5361731-3.0889706c.9111902-1.8313183 1.0455323-3.6023281.3767421-4.989423-.5475902-1.1326225-1.596043-1.9122198-2.9496861-2.1902272-.4840709-.0980576-.9767021-.1468439-1.4704623-.1456229-1.7585219.0151142-3.4607103.626567-4.8319363 1.7357073-.2751675.2442195-.3405542.6503254-.1561198.9696332.1844345.3193078.5672334.4627316.9139847.3424438.5156616-.1710938 1.0521964-.2700802 1.5945828-.2941877.4044866 0 .5665734.0853145.6176818.120617.2584626.1823963.740342.525125-.078853 2.1681632l-1.5347129 3.0919124c-.9126504 1.8342602-1.0455323 3.60527-.3767421 4.989423.54613 1.1340935 1.5931225 1.9122199 2.9496861 2.1902272.4808097.096953.9698929.1462197 1.4602406.1470939 1.7602443-.0160097 3.4636762-.6296126 4.8348568-1.7415911.2753791-.2436777.3414587-.649406.1578087-.9689437-.1836501-.3195377-.5658497-.4638347-.9127531-.3446042zm2.5510404-17.8277731c0-2.1357387-1.7187666-3.867097-3.8389726-3.867097-2.1202061 0-3.8389727 1.7313583-3.8389727 3.867097s1.7187666 3.867097 3.8389727 3.867097c2.120206 0 3.8389726-1.7313583 3.8389726-3.867097z"/></svg>

<?xml version="1.0" encoding="UTF-8"?>
<svg width="50px" height="50px" viewBox="0 0 50 50" version="1.1" xmlns="http://www.w3.org/2000/svg" xmlns:xlink="http://www.w3.org/1999/xlink">
    <!-- Generator: Sketch 52.4 (67378) - http://www.bohemiancoding.com/sketch -->
    <title>021-info</title>
    <desc>Created with Sketch.</desc>
    <g id="021-info" stroke="none" stroke-width="1" fill="none" fill-rule="evenodd">
        <path d="M45.8565647,25 C45.8565647,36.5187625 36.5187625,45.8565647 25,45.8565647 C13.4812374,45.8565647 4.14343533,36.5187625 4.14343533,25 C4.14343533,13.4812374 13.4812374,4.14343533 25,4.14343533 C30.5315049,4.14343533 35.8364537,6.34081709 39.7478183,10.2521817 C43.6591829,14.1635463 45.8565647,19.4684951 45.8565647,25 Z M28.8712267,33.8228417 C28.3549567,33.9935122 27.817998,34.0924861 27.2751837,34.1170294 C26.8692368,34.1170294 26.7042296,34.031715 26.6531212,33.9949415 C26.3946586,33.8140161 25.9230009,33.4757003 26.7348947,31.8282493 L28.2710678,28.7392787 C29.182258,26.9079604 29.3166001,25.1369506 28.6478099,23.7498557 C28.1002197,22.6172332 27.0517669,21.8376359 25.6981238,21.5596285 C25.2140529,21.4615709 24.7214217,21.4127846 24.2276615,21.4140056 C22.4691396,21.4291198 20.7669512,22.0405726 19.3957252,23.1497129 C19.1205577,23.3939324 19.055171,23.8000383 19.2396054,24.1193461 C19.4240399,24.4386539 19.8068388,24.5820777 20.1535901,24.4617899 C20.6692517,24.2906961 21.2057865,24.1917097 21.7481729,24.1676022 C22.1526595,24.1676022 22.3147463,24.2529167 22.3658547,24.2882192 C22.6243173,24.4706155 23.1061967,24.8133442 22.2870017,26.4563824 L20.7522888,29.5482948 C19.8396384,31.382555 19.7067565,33.1535648 20.3755467,34.5377178 C20.9216767,35.6718113 21.9686692,36.4499377 23.3252328,36.727945 C23.8060425,36.824898 24.2951257,36.8741647 24.7854734,36.8750389 C26.5457177,36.8590292 28.2491496,36.2454263 29.6203302,35.1334478 C29.8957093,34.8897701 29.9617889,34.4840418 29.7781389,34.1645041 C29.5944888,33.8449664 29.2122892,33.7006694 28.8653858,33.8198999 L28.8712267,33.8228417 Z M31.4222671,15.9950686 C31.4222671,13.8593299 29.7035005,12.1279716 27.5832945,12.1279716 C25.4630884,12.1279716 23.7443218,13.8593299 23.7443218,15.9950686 C23.7443218,18.1308073 25.4630884,19.8621656 27.5832945,19.8621656 C29.7035005,19.8621656 31.4222671,18.1308073 31.4222671,15.9950686 Z" id="Combined-Shape" fill="#000000" fill-rule="nonzero"></path>
    </g>
</svg>
